CN4T1/185/aimg/agua.svg

<svg clip-rule="evenodd" fill-rule="evenodd" stroke-linejoin="round" stroke-miterlimit="2" viewBox="0 0 248 357" xmlns="http://www.w3.org/2000/svg"><g fill-rule="nonzero"><path d="m0-42.762c-.655 0-.955-.046-1.236.006-8.738 1.643-17.546 2.47-26.419 1.715-2.791-.238-5.538-1.166-8.256-1.95-.433-.125-.606-1.154-.9-1.766.649-.111 1.329-.401 1.939-.294 1.021.179 1.975.72 2.995.921 9.518 1.885 18.978.701 28.412-.716 1.361-.205 2.618-1.108 3.923-1.688-1.228-.857-2.34-2.071-3.703-2.512-6.517-2.109-13.321-2.425-20.045-1.941-4.728.341-9.392 1.743-14.038 2.865-.744.179-1.796 1.396-1.767 2.094.201 4.862.626 9.715 1.023 14.567.807 9.861 1.761 19.711 2.385 29.583.172 2.711 1.117 4.574 3.292 5.927 1.268.789 2.547 1.679 3.948 2.114 7.877 2.447 15.697 1.849 23.437-.731 1.622-.541 2.245-1.612 2.329-3.384.702-14.876-.984-29.888 2.681-44.81m-19.655-11.289c5.26.736 10.529 1.417 15.774 2.246 1.305.206 2.595.772 3.789 1.377 3.024 1.532 3.529 2.793 2.818 6.139-1.749 8.238-2.898 16.527-2.771 24.994.108 7.278-.158 14.561-.229 21.842-.024 2.372-1.059 4.101-3.265 4.898-8.724 3.151-17.587 3.844-26.429.682-2.178-.779-4.073-2.472-5.95-3.935-1.472-1.146-1.972-2.757-2.049-4.743-.269-6.893-.711-13.784-1.273-20.661-.666-8.14-1.531-16.264-2.298-24.397-.247-2.614.422-3.762 3.088-4.773 6.028-2.283 12.279-3.364 18.795-3.669" fill="#231f20" transform="matrix(5.55556 0 0 5.55556 231.03283164 300.279325)"/><path d="m0-42.663c-3.665 14.922-1.979 29.934-2.681 44.81-.084 1.772-.707 2.843-2.329 3.384-7.74 2.58-15.56 3.178-23.437.731-1.401-.435-2.68-1.325-3.948-2.114-2.175-1.353-3.12-3.216-3.292-5.927-.624-9.872-1.578-19.722-2.385-29.583-.397-4.852-.822-9.705-1.023-14.567-.029-.698 1.023-1.915 1.767-2.094 4.646-1.122 9.31-2.524 14.038-2.865 6.724-.484 13.528-.168 20.045 1.941 1.363.441 2.475 1.655 3.703 2.512-1.305.58-2.562 1.483-3.923 1.688-9.434 1.417-18.894 2.601-28.412.716-1.02-.201-1.974-.742-2.995-.921-.61-.107-1.29.183-1.939.294.294.612.467 1.641.9 1.766 2.718.784 5.465 1.712 8.256 1.95 8.873.755 17.681-.072 26.419-1.715.281-.052.581-.006 1.236-.006" fill="#93d9f8" transform="matrix(5.55556 0 0 5.55556 231.03283164 299.72932456)"/><path d="m-15.09-15.09c-1.876 0-3.398 6.756-3.398 15.09s1.522 15.09 3.398 15.09c1.877 0 3.398-6.756 3.398-15.09s-1.521-15.09-3.398-15.09" fill="#dcf2fd" transform="matrix(0 -5.55556 -5.55556 0 128.15497156 35.59577992)"/><path d="m0-35.058s.935 28.202 2.181 29.76c1.247 1.558 4.674 5.298 14.491 4.519 9.816-.779 12.465-2.649 12.465-2.649l1.87-30.695s-7.911 2.933-17.451 2.493c-10.128-.468-13.556-3.428-13.556-3.428" fill="#d4effc" transform="matrix(5.55556 0 0 5.55556 39.13267812 323.01823208)"/><path d="m-1.549-4.2h5.953l-.358 2.544-4.494.473z" fill="#00c0f3" transform="matrix(.58133935396 5.5250599756 5.5250599756 -.58133935396 56.31046964 76.37359032)"/></g></svg>

<?xml version="1.0" encoding="UTF-8" standalone="no"?>
<!DOCTYPE svg PUBLIC "-//W3C//DTD SVG 1.1//EN" "http://www.w3.org/Graphics/SVG/1.1/DTD/svg11.dtd">
<svg width="100%" height="100%" viewBox="0 0 248 357" version="1.1" xmlns="http://www.w3.org/2000/svg" xmlns:xlink="http://www.w3.org/1999/xlink" xml:space="preserve" xmlns:serif="http://www.serif.com/" style="fill-rule:evenodd;clip-rule:evenodd;stroke-linejoin:round;stroke-miterlimit:2;">
    <g transform="matrix(1,0,0,1,-4162.63,-7806.1)">
        <g transform="matrix(5.55556,0,0,5.55556,3631.89,4783.46)">
            <g transform="matrix(1,0,0,1,137.119,598.125)">
                <path d="M0,-42.762C-0.655,-42.762 -0.955,-42.808 -1.236,-42.756C-9.974,-41.113 -18.782,-40.286 -27.655,-41.041C-30.446,-41.279 -33.193,-42.207 -35.911,-42.991C-36.344,-43.116 -36.517,-44.145 -36.811,-44.757C-36.162,-44.868 -35.482,-45.158 -34.872,-45.051C-33.851,-44.872 -32.897,-44.331 -31.877,-44.13C-22.359,-42.245 -12.899,-43.429 -3.465,-44.846C-2.104,-45.051 -0.847,-45.954 0.458,-46.534C-0.77,-47.391 -1.882,-48.605 -3.245,-49.046C-9.762,-51.155 -16.566,-51.471 -23.29,-50.987C-28.018,-50.646 -32.682,-49.244 -37.328,-48.122C-38.072,-47.943 -39.124,-46.726 -39.095,-46.028C-38.894,-41.166 -38.469,-36.313 -38.072,-31.461C-37.265,-21.6 -36.311,-11.75 -35.687,-1.878C-35.515,0.833 -34.57,2.696 -32.395,4.049C-31.127,4.838 -29.848,5.728 -28.447,6.163C-20.57,8.61 -12.75,8.012 -5.01,5.432C-3.388,4.891 -2.765,3.82 -2.681,2.048C-1.979,-12.828 -3.665,-27.84 0,-42.762M-19.655,-54.051C-14.395,-53.315 -9.126,-52.634 -3.881,-51.805C-2.576,-51.599 -1.286,-51.033 -0.092,-50.428C2.932,-48.896 3.437,-47.635 2.726,-44.289C0.977,-36.051 -0.172,-27.762 -0.045,-19.295C0.063,-12.017 -0.203,-4.734 -0.274,2.547C-0.298,4.919 -1.333,6.648 -3.539,7.445C-12.263,10.596 -21.126,11.289 -29.968,8.127C-32.146,7.348 -34.041,5.655 -35.918,4.192C-37.39,3.046 -37.89,1.435 -37.967,-0.551C-38.236,-7.444 -38.678,-14.335 -39.24,-21.212C-39.906,-29.352 -40.771,-37.476 -41.538,-45.609C-41.785,-48.223 -41.116,-49.371 -38.45,-50.382C-32.422,-52.665 -26.171,-53.746 -19.655,-54.051" style="fill:rgb(35,31,32);fill-rule:nonzero;"/>
            </g>
        </g>
        <g transform="matrix(5.55556,0,0,5.55556,3631.89,4783.46)">
            <g transform="matrix(1,0,0,1,137.119,598.026)">
                <path d="M0,-42.663C-3.665,-27.741 -1.979,-12.729 -2.681,2.147C-2.765,3.919 -3.388,4.99 -5.01,5.531C-12.75,8.111 -20.57,8.709 -28.447,6.262C-29.848,5.827 -31.127,4.937 -32.395,4.148C-34.57,2.795 -35.515,0.932 -35.687,-1.779C-36.311,-11.651 -37.265,-21.501 -38.072,-31.362C-38.469,-36.214 -38.894,-41.067 -39.095,-45.929C-39.124,-46.627 -38.072,-47.844 -37.328,-48.023C-32.682,-49.145 -28.018,-50.547 -23.29,-50.888C-16.566,-51.372 -9.762,-51.056 -3.245,-48.947C-1.882,-48.506 -0.77,-47.292 0.458,-46.435C-0.847,-45.855 -2.104,-44.952 -3.465,-44.747C-12.899,-43.33 -22.359,-42.146 -31.877,-44.031C-32.897,-44.232 -33.851,-44.773 -34.872,-44.952C-35.482,-45.059 -36.162,-44.769 -36.811,-44.658C-36.517,-44.046 -36.344,-43.017 -35.911,-42.892C-33.193,-42.108 -30.446,-41.18 -27.655,-40.942C-18.782,-40.187 -9.974,-41.014 -1.236,-42.657C-0.955,-42.709 -0.655,-42.663 0,-42.663" style="fill:rgb(147,217,248);fill-rule:nonzero;"/>
            </g>
        </g>
        <g transform="matrix(5.55556,0,0,5.55556,3631.89,4783.46)">
            <g transform="matrix(0,-1,-1,0,118.601,550.482)">
                <path d="M-15.09,-15.09C-16.966,-15.09 -18.488,-8.334 -18.488,0C-18.488,8.334 -16.966,15.09 -15.09,15.09C-13.213,15.09 -11.692,8.334 -11.692,0C-11.692,-8.334 -13.213,-15.09 -15.09,-15.09" style="fill:rgb(220,242,253);fill-rule:nonzero;"/>
            </g>
        </g>
        <g transform="matrix(5.55556,0,0,5.55556,3631.89,4783.46)">
            <g transform="matrix(1,0,0,1,102.577,602.218)">
                <path d="M0,-35.058C0,-35.058 0.935,-6.856 2.181,-5.298C3.428,-3.74 6.855,0 16.672,-0.779C26.488,-1.558 29.137,-3.428 29.137,-3.428L31.007,-34.123C31.007,-34.123 23.096,-31.19 13.556,-31.63C3.428,-32.098 0,-35.058 0,-35.058" style="fill:rgb(212,239,252);fill-rule:nonzero;"/>
            </g>
        </g>
        <g transform="matrix(5.55556,0,0,5.55556,3631.89,4783.46)">
            <g transform="matrix(0.104641,0.99451,0.99451,-0.104641,105.669,557.822)">
                <path d="M-1.549,-4.2L4.404,-4.2L4.046,-1.656L-0.448,-1.183L-1.549,-4.2Z" style="fill:rgb(0,192,243);fill-rule:nonzero;"/>
            </g>
        </g>
    </g>
</svg>
